dist/svg/indicator-3.svg

<svg width="16" height="16" viewBox="0 0 16 16" fill="rgb(34, 34, 34)" xmlns="http://www.w3.org/2000/svg"><title>indicator-3</title><path d="M7.99999 12.21C5.66999 12.21 3.78999 10.33 3.78999 7.99999C3.78999 5.66999 5.66999 3.78999 7.99999 3.78999C10.33 3.78999 12.21 5.66999 12.21 7.99999C12.21 10.33 10.32 12.21 7.99999 12.21ZM7.99999 13.01C10.77 13.01 13.01 10.77 13.01 7.99999C13.01 5.22999 10.77 2.98999 7.99999 2.98999C5.22999 2.98999 2.98999 5.22999 2.98999 7.99999C2.98999 10.77 5.22999 13.01 7.99999 13.01Z" fill="rgb(34, 34, 34)" fill-opacity="1.00"/></svg>

<!-- Generated by Trend Micro Style Portal -->
<svg version="1.1" xmlns="http://www.w3.org/2000/svg" width="16" height="16" viewBox="0 0 16 16">
  <title>indicator-3</title>
  <path fill="rgb(34,34,34)" d="M8 12.21c-2.33 0-4.21-1.88-4.21-4.21s1.88-4.21 4.21-4.21c2.33 0 4.21 1.88 4.21 4.21s-1.89 4.21-4.21 4.21zM8 13.010c2.77 0 5.010-2.24 5.010-5.010s-2.24-5.010-5.010-5.010-5.010 2.24-5.010 5.010 2.24 5.010 5.010 5.010z"></path>
</svg>
